X: 25763
T: Mary Young And Fair
R: waltz
M: 3/4
K: Aminor
|:E|A>BA c2 d|e2 c dcA|e2 A AB|A2 G4:|
A4 eg|aaa g2 f|e2 c2 ag|e2 A A>B|G4 E2|
A>BA c2 d|e2 c AGF|e2 c dcB|A4 eg|
a>aa g2 f|c3 B A2|e2 c deg|e2 c deg|
e2 A2 B2|a3 G2 F|e2 c d>cB|A6||

